EMOCIOCLOWN/static/images/blob-shape-3.svg

<?xml version="1.0" encoding="utf-8"?>
<!-- Generator: Adobe Illustrator 24.1.0, SVG Export Plug-In . SVG Version: 6.00 Build 0)  -->
<svg version="1.1" id="Capa_1" xmlns="http://www.w3.org/2000/svg" xmlns:xlink="http://www.w3.org/1999/xlink" x="0px" y="0px"
	 viewBox="0 0 600 600" style="enable-background:new 0 0 600 600;" xml:space="preserve">
<style type="text/css">
	.st0{fill:url(#SVGID_1_);}
</style>
<g transform="translate(300,300)">
	<linearGradient id="SVGID_1_" gradientUnits="userSpaceOnUse" x1="-186.1846" y1="-44.9868" x2="263.8154" y2="75.0132">
		<stop  offset="0" style="stop-color:#00CCCD"/>
		<stop  offset="0.2952" style="stop-color:#34A3D7"/>
		<stop  offset="1" style="stop-color:#033D58"/>
	</linearGradient>
	<path class="st0" d="M131-207.6c28.9,22.4,35.8,75.3,58.3,121.9s60.6,86.9,61.2,125.6c0.5,38.8-36.6,76.1-74.4,104
		c-37.7,28-76.2,46.6-118.1,63.3c-41.8,16.7-87.1,31.4-132.6,27.1s-91.3-27.6-119.8-64c-28.5-36.3-39.8-85.7-36.1-130.6
		c3.8-45,22.5-85.5,46-118.6c23.4-33.1,51.5-58.7,83-80C-69.9-180.1-35-197.1,8-209.5C51-222,102-230,131-207.6z"/>
</g>
</svg>

<?xml version="1.0" standalone="no"?>
<svg
  width="600"
  height="600"
  viewBox="0 0 600 600"
  xmlns="http://www.w3.org/2000/svg"
>
  <g transform="translate(300,300)">
    <path d="M131,-207.6C159.9,-185.2,166.8,-132.3,189.3,-85.7C211.8,-39.1,249.9,1.2,250.5,39.9C251,78.7,213.9,116,176.1,143.9C138.4,171.9,99.9,190.5,58,207.2C16.2,223.9,-29.1,238.6,-74.6,234.3C-120.1,230,-165.9,206.7,-194.4,170.3C-222.9,134,-234.2,84.6,-230.5,39.7C-226.7,-5.3,-208,-45.8,-184.5,-78.9C-161.1,-112,-133,-137.6,-101.5,-158.9C-69.9,-180.1,-35,-197.1,8,-209.5C51,-222,102,-230,131,-207.6Z" fill="#b2bbc9" />
  </g>
</svg>
